X:3427
L:1/8
Q:3/8=100
M:6/8
K:G
 e | dGG BGG | dGG Gge | (dcB) (BAG) | (FGA) (Aed) | dGG BGG | (dG)G !fermata!e2 d/c/ | 
 (Bcd) (def) | (gGG) G2 z || (gfe) (dBB) | (cBA) !fermata!G2 F | (EFG) (GAB) | (Bed) d2 d | 
 (gfe) (eB)B | (cBA) G2 F | EFG GAB | (Bed) !fermata!d2 e | (dGG) (BGG) | (dGG) (Gge) | 
 (dcB) (BAG) | (FAA) (Aed) | (dGG) (BGG) | (dGG) !fermata!e2 d/c/ | (Bcd) (def) | (gGG) G2 |]

